!!!COM: Bach, Johann Sebastian
!!!OTL: 258. Meine Augen schliess' ich jetzt
!!!ONM: No. 258
!!!OCL: Erk
!!!SCA: BWV 378
!!!YOE: Riemenschneider, Albert
!!!OPR: 371 Harmonized Chorales and 69 Chorale Melodies with Figured Bass
!!!OPT: Bach Chorale Harmonizations
**harm	**root	**kern	**kern	**kern	**kern
!	!	!bass	!tenor	!alto	!sprno
*Iorgan	*Iorgan	*Iorgan	*Iorgan	*Iorgan	*Iorgan
*k[]	*k[]	*k[]	*k[]	*k[]	*k[]
*C:	*C:	*C:	*C:	*C:	*C:
*met(c)	*met(c)	*met(c)	*met(c)	*met(c)	*met(c)
*M4/4	*M4/4	*M4/4	*M4/4	*M4/4	*M4/4
*MM60	*MM60	*MM60	*MM60	*MM60	*MM60
I	4GG	8C	8e	4g	4cc
.	.	8D	8d	.	.
=1	=1	=1	=1	=1	=1
Ib	4GG	8E	4c	4g	4cc
.	.	8F	.	.	.
V	4DD	8G	4B	4d	4g
.	.	8F	.	.	.
Ib	4GG	4E	4c	4g	4cc
viiob	4FF#	4D	4f	8a	4dd
.	.	.	.	8b	.
=2	=2	=2	=2	=2	=2
I;	2.GG;	2C;	2g;	2cc;	2ee;
.	.	4r	4r	4r	4r
Ib	4GG	4E	4g	[4cc	4gg
=3	=3	=3	=3	=3	=3
IV	4CC	4.F	4f	8cc]	4aa
.	.	.	.	8b	.
Ib	4GG	.	4g	[4cc	4gg
.	.	8E	.	.	.
ii7	4AA	4D	8a	8cc]	4.ff
.	.	.	16g	16b	.
.	.	.	16f	16a	.
V	4DD	4GG	4g	4b	.
.	.	.	.	.	8gg
=4	=4	=4	=4	=4	=4
I;	2GG;	2C;	2g;	2cc;	2ee;
r	4r	4r	4r	4r	4r
I	4GG	4C	4e	[4cc	4gg
=5	=5	=5	=5	=5	=5
viiob	4FF#	4D	4f	8cc]	4ff
.	.	.	.	8b	.
Ib	4GG	8E	4g	[4cc	4ee
.	.	8F	.	.	.
V	4DD	4G	[4g	8cc]	4dd
.	.	.	.	8b	.
viiob/V	4CC#	4A	8g]	8cc	4cc
.	.	.	8f#	8c	.
=6	=6	=6	=6	=6	=6
V;	2DD;	2G;	2b;	2g;	2dd;
r	4r	4r	4r	4r	4r
Vb/vi	4BB	4G#	4e	4b	4ee
=7	=7	=7	=7	=7	=7
vi	4EE	4.A	4e	8b	4cc
.	.	.	.	16a	.
.	.	.	.	16b	.
IVb	8CC	.	8a	8cc	4ff
V7b	8DD	8B	8g	[8dd	.
I	4GG	4c	4g	8dd]	4ee
.	.	.	.	8cc	.
V	4DD	4G	8.g	8cc	4dd
.	.	.	.	8b	.
.	.	.	16f	.	.
=8	=8	=8	=8	=8	=8
I;	2GG;	2C;	2e;	2g;	2cc;
r	4r	4r	4r	4r	4r
I	4GG	8C	4g	4cc	8ee
.	.	8D	.	.	8ff
=9	=9	=9	=9	=9	=9
!!linebreak: 2
Ib	4GG	4.E	8g	4cc	4gg
.	.	.	8f	.	.
Ib	8GG	.	4e	4cc	4gg
vi7	8EE	8A	.	.	.
ii7	4AA	4D	4f	8cc	4ff
.	.	.	.	8b	.
Ib	4GG	8E	4g	4cc	4ee
.	.	8F	.	.	.
=10	=10	=10	=10	=10	=10
V;	2DD;	2G;	2g;	4cc	2dd;
.	.	.	.	4b;	.
r	4r	4r	4r	4r	4r
Vb/vi	4BB	4G#	4e	4b	4ee
=11	=11	=11	=11	=11	=11
vi	4EE	8A	8e	4a	4cc
.	.	8G	8f	.	.
Ib	4GG	8F	4g	4g	4cc
.	.	8E	.	.	.
iib	4AA	8F	4f	4a	4dd
.	.	8E	.	.	.
Vb/ii	4EE	8D	[4e	4a	4ee
.	.	8C#	.	.	.
=12	=12	=12	=12	=12	=12
ii	4AA	8D	8e]	2a	2ff
.	.	8E	16d	.	.
.	.	.	16c#	.	.
iib	4AA	8F	4d	.	.
.	.	8G	.	.	.
VI;	4EE;	4A;	8d	4a;	4ee;
.	.	.	8c#;	.	.
Vb/IV	4GG	4E	4c	8g	4gg
.	.	.	.	8b-	.
=13	=13	=13	=13	=13	=13
IV	4CC	4F	4c	8a	4ff
.	.	.	.	4cc	.
V	4DD	4G	4g	.	4dd
.	.	.	.	8by	.
I	4GG	8c	4g	4cc	4ee
.	.	8B	.	.	.
IVb	4CC	4A	4a	4cc	4ff
=14	=14	=14	=14	=14	=14
Ib;	2GG;	2E;	2g;	2cc;	2gg;
r	4r	4r	4r	4r	4r
vi	4EE	8A	4e	[4a	4cc
.	.	8G	.	.	.
=15	=15	=15	=15	=15	=15
iib	8AA	4F	8f	8a]	4dd
V7d	8DD	.	8g	8b	.
Ib	8GG	8E	8g	[4cc	4ee
vi	8EE	8A	16a	.	.
.	.	.	16g	.	.
viiob	4FF#	4D	4f	8cc]	4ff
.	.	.	.	8b	.
Ib	4GG	8E	4g	4cc	4ee
.	.	8C	.	.	.
=16	=16	=16	=16	=16	=16
ii7b	4AA	4F	4a	8cc	2dd
.	.	.	.	16b	.
.	.	.	.	16a	.
V	4DD	4G	8.g	4b	.
.	.	.	16f	.	.
I;	4GG;	4C;	4e;	4g;	4cc;
==	==	==	==	==	==
*-	*-	*-	*-	*-	*-
!!!CDT: 1685/3//-1750/7/28
!!!OCY: Deutschland
!!!AGN: chorale
!!!AST: Baroque
!!!AIN: vox
!!!YOY: 1941
!!!PPP: New York; London
!!!PPR: G. Schirmer
!!!ENC: David Huron
!!!EED: David Huron
!!!YEN: United States of America
!!!YER: 1992
!!!YEC: Copyright 1992 David Huron
!!!YEM: Rights to all derivative electronic formats reserved.
!!!YER: March 20, 1996
!!!AMT: simple quadruple
!!!EEV: 1.1
!!chor2scor: -l 2 -s 0.6 -o %b.pmx
